X: 1
T:Kali Horo
O:England
M:7/8
C:Fiona Durance
A:Leeds
K:Am
\vskip 6pt
A2E A2 B2| c2B A^GAB| d2c BA^GA \
|1 BA^G AcAG:|2 BA^G AcAc ||
|:B2c dBcA| ^G2f efec| BcB ffeB| d2c B2B2:|
|:e^cec eBc| e^cfe dcd| e^cec efg| fed e2 e2:|
|:e2 aae gd| e2aae gd| e2 aae gd| e2 fed e2:|
|:AEA BcBA| AEA BcBA| ^GAB efed| cdc BcBA:|
W:Copyright (C) Fiona Durance
